X:1
T:The Southern Girl's Reply
M:6/8
L:1/4
K:Bb
 B,/2| E E/2 E E/2| E F/2 G G/2| F F/2 D B,/2| C3/2 z F/2| B B/2 G F/2|\
 A G/2 F B,/2| D F/2 C D/2| B,3/2 z B,/2| E E/2 E E/2| E- F/2 G G/2|\
 F F/2 D B,/2| C3/2 z F/2| B B/2 G F/2| A G/2 F B,/2| D F/2 C D/2|\
 B,3/2 z F/2| B3/2 z F/2| B3/2 z D/4D/4| E F/2 G B/2| F3/2 z F/2| B3/2 G F/2|\
 A G/2 F B,/4B,/4| D F/2 C D/2| B,3/2 z||

